assets/images/s3.svg

<svg width="34" height="33" viewBox="0 0 34 33" fill="none" xmlns="http://www.w3.org/2000/svg">
<g clip-path="url(#clip0_9_131)">
<path d="M33.19 16.37C33.19 19.6081 32.2296 22.7735 30.4304 25.4657C28.6312 28.158 26.074 30.2562 23.0822 31.4949C20.0904 32.7336 16.7984 33.0572 13.6227 32.4247C10.4469 31.7923 7.53007 30.2322 5.24108 27.9418C2.9521 25.6514 1.3938 22.7336 0.763285 19.5575C0.132775 16.3814 0.458382 13.0896 1.69892 10.0985C2.93946 7.10749 5.0392 4.55154 7.73255 2.75398C10.4259 0.956427 13.5919 -0.00197502 16.83 3.05578e-06C18.9792 2.65427e-06 21.1074 0.423498 23.093 1.24629C25.0785 2.06908 26.8825 3.27504 28.4018 4.79527C29.9211 6.3155 31.1259 8.12019 31.9475 10.1062C32.7691 12.0923 33.1913 14.2207 33.19 16.37Z" fill="white"/>
<path d="M16.0899 23.21H17.2299C17.4195 23.1875 17.5976 23.1072 17.7399 22.98C17.8447 22.8344 17.9007 22.6594 17.8999 22.48C17.8999 22.48 17.8999 20.96 18.5799 20.74C19.2599 20.52 20.1699 22.21 21.1099 22.86C21.4664 23.1421 21.9169 23.278 22.3699 23.24H24.8999C24.8999 23.24 26.2299 23.15 25.5999 22.11C25.1041 21.283 24.4679 20.5487 23.7199 19.94C22.1299 18.46 22.3499 18.7 24.2599 16.16C25.4199 14.6 25.8899 13.66 25.7399 13.25C25.5899 12.84 24.7399 12.97 24.7399 12.97H21.8999C21.7734 12.9544 21.645 12.9752 21.5299 13.03C21.4221 13.1109 21.3362 13.2175 21.2799 13.34C20.9856 14.1051 20.6346 14.8472 20.2299 15.56C18.9599 17.71 18.4499 17.82 18.2299 17.69C17.7499 17.38 17.8699 16.44 17.8699 15.77C17.8699 13.68 18.1899 12.77 17.2499 12.59C16.8159 12.4786 16.3673 12.4348 15.9199 12.46C15.1251 12.3805 14.3225 12.4622 13.5599 12.7C13.2399 12.86 12.9899 13.21 13.1399 13.23C13.4614 13.2641 13.7598 13.4133 13.9799 13.65C14.1759 14.0512 14.2719 14.4937 14.2599 14.94C14.2599 14.94 14.4299 17.4 13.8699 17.7C13.4899 17.91 12.9599 17.49 11.8699 15.53C11.4918 14.8488 11.1578 14.144 10.8699 13.42C10.8194 13.2997 10.7405 13.1933 10.6399 13.11C10.5074 13.02 10.3575 12.9587 10.1999 12.93L7.45993 12.94C7.45993 12.94 7.05993 12.94 6.90993 13.13C6.75993 13.32 6.90993 13.61 6.90993 13.61C6.90993 13.61 9.01993 18.61 11.4299 21.06C12.0228 21.7205 12.745 22.2521 13.5517 22.6219C14.3585 22.9918 15.2326 23.1919 16.1199 23.21" fill="#232323"/>
</g>
<defs>
<clipPath id="clip0_9_131">
<rect width="32.73" height="32.73" fill="white" transform="translate(0.459961)"/>
</clipPath>
</defs>
</svg>

<svg width="34" height="33" fill="none" xmlns="http://www.w3.org/2000/svg"><g clip-path="url(#clip0_9_131)"><path d="M33.19 16.37A16.37 16.37 0 1116.83 0a16.36 16.36 0 0116.36 16.37z" fill="#fff"/><path d="M16.09 23.21h1.14a.93.93 0 00.51-.23.85.85 0 00.16-.5s0-1.52.68-1.74c.68-.22 1.59 1.47 2.53 2.12a1.79 1.79 0 001.26.38h2.53s1.33-.09.7-1.13a8.3 8.3 0 00-1.88-2.17c-1.59-1.48-1.37-1.24.54-3.78 1.16-1.56 1.63-2.5 1.48-2.91-.15-.41-1-.28-1-.28H21.9a.67.67 0 00-.37.06.811.811 0 00-.25.31 16.479 16.479 0 01-1.05 2.22c-1.27 2.15-1.78 2.26-2 2.13-.48-.31-.36-1.25-.36-1.92 0-2.09.32-3-.62-3.18a4.363 4.363 0 00-1.33-.13 5.941 5.941 0 00-2.36.24c-.32.16-.57.51-.42.53.321.034.62.183.84.42.196.401.292.844.28 1.29 0 0 .17 2.46-.39 2.76-.38.21-.91-.21-2-2.17a18.222 18.222 0 01-1-2.11.81.81 0 00-.23-.31 1.15 1.15 0 00-.44-.18l-2.74.01s-.4 0-.55.19c-.15.19 0 .48 0 .48s2.11 5 4.52 7.45a6.48 6.48 0 004.69 2.15" fill="#232323"/></g><defs><clipPath id="clip0_9_131"><path fill="#fff" transform="translate(.46)" d="M0 0h32.73v32.73H0z"/></clipPath></defs></svg>
